7/img/stack.svg

<svg xmlns="http://www.w3.org/2000/svg">

 <style> :root svg:not(:target) {display: none} </style>

 <svg id="vk" width="24" height="24" viewBox="0 0 24 14" fill="none" xmlns="http://www.w3.org/2000/svg">
  <path fill-rule="evenodd" clip-rule="evenodd" d="M23.45 0.948C23.616 0.402 23.45 0 22.655 0H20.03C19.362 0 19.054 0.347 18.887 0.73C18.887 0.73 17.552 3.926 15.661 6.002C15.049 6.604 14.771 6.795 14.437 6.795C14.27 6.795 14.019 6.604 14.019 6.057V0.948C14.019 0.292 13.835 0 13.279 0H9.151C8.734 0 8.483 0.304 8.483 0.593C8.483 1.214 9.429 1.358 9.526 3.106V6.904C9.526 7.737 9.373 7.888 9.039 7.888C8.149 7.888 5.984 4.677 4.699 1.003C4.45 0.288 4.198 0 3.527 0H0.9C0.15 0 0 0.347 0 0.73C0 1.412 0.89 4.8 4.145 9.281C6.315 12.341 9.37 14 12.153 14C13.822 14 14.028 13.632 14.028 12.997V10.684C14.028 9.947 14.186 9.8 14.715 9.8C15.105 9.8 15.772 9.992 17.33 11.467C19.11 13.216 19.403 14 20.405 14H23.03C23.78 14 24.156 13.632 23.94 12.904C23.702 12.18 22.852 11.129 21.725 9.882C21.113 9.172 20.195 8.407 19.916 8.024C19.527 7.533 19.638 7.314 19.916 6.877C19.916 6.877 23.116 2.451 23.449 0.948H23.45Z" fill="white"/>
 </svg>


 <svg id="youtube" width="24" height="24" viewBox="0 0 20 14" fill="none" xmlns="http://www.w3.org/2000/svg">
  <path d="M17.1813 0H2.81331C1.30618 0 0 1.3 0 2.8V11.1C0 12.7 1.30618 14 2.81331 14H17.1813C18.7889 14 19.9946 12.7 19.9946 11.2V2.8C20.095 1.3 18.7889 0 17.1813 0ZM7.03326 10.4V3.6L13.8656 7L7.03326 10.4Z" fill="white"/>
 </svg>


 <svg id="telegram" width="24" height="24" viewBox="0 0 22 18" fill="none" xmlns="http://www.w3.org/2000/svg">
  <path d="M21.4393 1.62225L18.2705 16.566C18.0313 17.6205 17.408 17.883 16.5223 17.3865L11.6938 13.8285L9.36427 16.0695C9.10627 16.3275 8.89102 16.5428 8.39377 16.5428L8.74102 11.6258L17.6893 3.54C18.0785 3.1935 17.6045 3.00075 17.0848 3.348L6.02227 10.314L1.25977 8.823C0.224021 8.49975 0.205271 7.78725 1.47577 7.29L20.1035 0.113253C20.966 -0.209997 21.7205 0.305253 21.4393 1.623V1.62225Z" fill="white"/>
 </svg>


 <svg id="htmlacademy" width="28" height="33" viewBox="0 0 28 33" fill="none" xmlns="http://www.w3.org/2000/svg">
  <path d="M14.1506 0.25H14.0502L0.5 1.58944V25.221L14.0502 32.875L27.5 25.221V1.58944L14.1506 0.25ZM25.5929 11.8266L14.0502 5.32075V5.22507H13.9498L13.8494 5.1294V5.22507L2.40706 11.8266V3.21591L13.9498 2.06782L25.5929 3.21591V11.8266ZM13.9498 6.75587L25.4926 13.1661L20.9758 15.6536L13.8494 11.6353V12.9747L19.7714 16.3233L18.868 16.8017L13.8494 13.9315V15.2709L17.6636 17.4714L16.8606 17.9498L13.8494 16.2276V17.5671L15.7565 18.6195L13.9498 19.6719L2.50743 13.2617L13.9498 6.75587ZM2.40706 14.6968L13.8494 21.2027V22.1595L5.92007 17.6628V19.0022L13.9498 23.5946V24.647L5.92007 20.1503V21.4897L13.9498 26.0821L22.0799 21.3941V16.419L25.4926 14.5055V24.0729L13.9498 30.6745L2.40706 24.1686V14.6968Z" fill="black"/>
 </svg>


 <svg id="like" width="22" height="20" viewBox="0 0 22 20" fill="none" xmlns="http://www.w3.org/2000/svg">
<path d="M12.4 3.6L11.8 6.5L11.2 9H13.7H19.9V11C19.9 11 19.9 11 19.9 11.1L17 18H8V8L12.4 3.6ZM2 10V18V10ZM13.2 0L6.6 6.6C6.2 6.9 6 7.4 6 8V18C6 19.1 6.9 20 8 20H17C17.8 20 18.5 19.5 18.8 18.8L21.8 11.7C21.9 11.5 21.9 11.2 21.9 11V9H22C22 7.9 21.1 7 20 7H13.7L14.7 2.4V2.1C14.7 1.7 14.5 1.3 14.3 1L13.2 0ZM4 8H0V20H4V8Z" fill="#81B3D2"/>
</svg>


<svg id="houseicon" viewBox="0 0 40 40" fill="none" xmlns="http://www.w3.org/2000/svg">
<path d="M15.9015 34.8041H24.2549V22.646H15.9015V34.8041ZM22.7408 33.3289H17.4155V24.1212H22.6886V33.3289H22.7408Z" fill="#81B3D2"/>
<path d="M38.4036 21.6278L39.5 20.5595L34.3313 15.5233V1.7882H27.1265V8.50314L19.9739 1.58472L0.5 20.6104L1.59639 21.6787L5.66867 17.7108V36.9399H3.63253V38.4152H36.994V36.9399H34.3313V17.6599L38.4036 21.6278ZM28.6406 3.31432H32.7651V14.0481L28.6406 10.0293V3.31432ZM32.8173 36.889H7.23494V16.1846L19.9739 3.72129L32.7651 16.1846V36.889H32.8173Z" fill="#81B3D2"/>
<path d="M16.0582 15.4216C16.0582 17.609 17.8855 19.3895 20.0783 19.3895C22.3233 19.3895 24.1506 17.609 24.1506 15.4216C24.1506 13.2341 22.3233 11.5045 20.0783 11.5045C17.8333 11.5045 16.0582 13.2341 16.0582 15.4216ZM20.0783 12.878C21.4879 12.878 22.6888 13.9972 22.6888 15.4216C22.6888 16.7951 21.5402 17.9651 20.0783 17.9651C18.6687 17.9651 17.4679 16.846 17.4679 15.4216C17.4679 14.0481 18.6687 12.878 20.0783 12.878Z" fill="#81B3D2"/>
<path d="M10.8895 22.646H9.32324V24.63H10.8895V22.646Z" fill="#81B3D2"/>
<path d="M13.9698 22.646H12.4036V24.63H13.9698V22.646Z" fill="#81B3D2"/>
<path d="M10.8895 25.6975H9.32324V27.6815H10.8895V25.6975Z" fill="#81B3D2"/>
<path d="M13.9698 25.6975H12.4036V27.6815H13.9698V25.6975Z" fill="#81B3D2"/>
<path d="M27.5443 22.646H25.978V24.63H27.5443V22.646Z" fill="#81B3D2"/>
<path d="M30.6769 22.646H29.1106V24.63H30.6769V22.646Z" fill="#81B3D2"/>
<path d="M27.5443 25.6975H25.978V27.6815H27.5443V25.6975Z" fill="#81B3D2"/>
<path d="M30.6769 25.6975H29.1106V27.6815H30.6769V25.6975Z" fill="#81B3D2"/>
</svg>


<svg id="burger" viewBox="0 0 40 40" fill="none" xmlns="http://www.w3.org/2000/svg">
<path d="M37.7428 25.8505H2.25722C0.997375 25.8505 0 26.8635 0 28.0285V29.8014C0 30.9664 0.997375 31.9288 2.25722 31.9288H2.78215V32.4354C2.78215 35.2213 5.14436 37.45 7.979 37.45H32.021C34.9081 37.45 37.2178 35.1706 37.2178 32.4354V31.9288H37.7428C38.9501 31.9288 40 30.9664 40 29.7508V27.9779C40 26.8635 39.0026 25.8505 37.7428 25.8505ZM35.6955 32.4354C35.6955 34.3602 34.0682 35.9304 32.0735 35.9304H7.92651C5.93176 35.9304 4.30446 34.3602 4.30446 32.4354V31.9288H35.6955V32.4354ZM38.4252 29.7508C38.4252 30.1053 38.1102 30.4092 37.7428 30.4092H2.25722C1.88976 30.4092 1.5748 30.1053 1.5748 29.7508V27.9779C1.5748 27.674 1.88976 27.3701 2.25722 27.3701H37.7953C38.1627 27.3701 38.4777 27.674 38.4777 28.0285V29.7508H38.4252Z" fill="#81B3D2"/>
<path d="M8.50395 21.7473L11.3386 23.7735L14.2257 21.7473L17.1129 23.7735L20 21.7473L22.8347 23.7735L25.7218 21.7473L28.6089 23.7735L31.4961 21.7473L34.3832 23.7735L37.6903 21.3928L36.7979 20.1771L34.3832 21.8486L31.4961 19.8225L28.6089 21.8486L25.7218 19.8225L22.8347 21.8486L20 19.8225L17.1129 21.8486L14.2257 19.8225L11.3386 21.8486L8.50395 19.8225L5.61682 21.8486L3.20212 20.1771L2.25723 21.3928L5.61682 23.7735L8.50395 21.7473Z" fill="#81B3D2"/>
<path d="M37.2179 18.3032C37.2179 17.9993 37.2704 16.9862 37.2179 16.7836C36.8504 8.88169 29.2913 2.55005 20 2.55005C10.7087 2.55005 3.09712 8.88169 2.72967 16.7836C2.72967 16.9862 2.72967 17.9993 2.72967 18.3032H37.2179ZM20 4.06964C28.399 4.06964 35.3281 9.74279 35.6431 16.7836H4.30447C4.67193 9.74279 11.6011 4.06964 20 4.06964Z" fill="#81B3D2"/>
<path d="M20 11.1611C20.5798 11.1611 21.0499 10.7076 21.0499 10.1481C21.0499 9.58857 20.5798 9.13501 20 9.13501C19.4202 9.13501 18.9501 9.58857 18.9501 10.1481C18.9501 10.7076 19.4202 11.1611 20 11.1611Z" fill="#81B3D2"/>
<path d="M15.8005 8.67871C16.3803 8.67871 16.8504 8.22515 16.8504 7.66565C16.8504 7.10615 16.3803 6.65259 15.8005 6.65259C15.2207 6.65259 14.7506 7.10615 14.7506 7.66565C14.7506 8.22515 15.2207 8.67871 15.8005 8.67871Z" fill="#81B3D2"/>
<path d="M24.1995 8.67871C24.7793 8.67871 25.2493 8.22515 25.2493 7.66565C25.2493 7.10615 24.7793 6.65259 24.1995 6.65259C23.6196 6.65259 23.1496 7.10615 23.1496 7.66565C23.1496 8.22515 23.6196 8.67871 24.1995 8.67871Z" fill="#81B3D2"/>
</svg>


<svg id="gift" viewBox="0 0 40 40" fill="none" xmlns="http://www.w3.org/2000/svg">
<path d="M34.5778 12.2058H34.527H22.1841C29.0921 8.76156 29.6508 6.58358 29.3968 5.36796C28.8381 3.39259 26.5524 1.87307 24.419 2.68348C21.6254 3.74714 20.8635 7.9005 20.1016 10.8889C19.1365 7.84985 18.2222 4.0004 16.0381 2.02502C15.4286 1.46786 14.5143 0.910706 13.1429 1.01201C11.1111 1.21461 8.21587 3.69649 9.43492 6.48228C10.5524 9.16676 14.2603 10.8889 16.7492 12.2565H5.42222C4.60952 12.2565 4 12.9149 4 13.6747V19.3475C4 20.158 4.66032 20.7658 5.42222 20.7658H5.5746V39H34.527V20.7658H34.5778C35.3905 20.7658 36 20.1073 36 19.3475V13.6747C36 12.8643 35.3397 12.2058 34.5778 12.2058ZM25.2317 3.94975C26.2984 3.79779 27.7206 4.6082 27.873 5.57057C28.0762 6.93813 26.1968 8.2044 25.3333 8.76156C24.0635 9.62262 22.8444 10.0785 21.6762 10.7876C22.0825 8.91351 22.946 4.25365 25.2317 3.94975ZM13.7524 8.91351C12.6349 8.15375 10.5016 6.68488 10.5524 5.01341C10.6032 3.18999 13.4476 1.72112 14.9714 3.08868C16.9016 4.76016 17.8159 8.66026 18.527 11.3954C16.9016 10.585 15.3778 9.97717 13.7524 8.91351ZM16.7492 37.4805H7.04762V20.7658H16.7492V37.4805ZM16.7492 19.2462H5.52381V13.7253H16.7492V19.2462ZM21.8286 37.4805H18.2222V13.7253H21.8286V37.4805ZM33.0032 37.4805H23.3524V20.7658H33.054V37.4805H33.0032ZM34.4762 19.2462H23.3524V13.7253H34.4762V19.2462Z" fill="#81B3D2"/>
</svg>


<svg id="play" width="48" height="54" viewBox="0 0 48 54" fill="none" xmlns="http://www.w3.org/2000/svg">
<path d="M48 27L0 54L2.42273e-06 0L48 27Z" fill="white"/>
</svg>


</svg>

<svg xmlns="http://www.w3.org/2000/svg"><style>:root svg:not(:target){display:none}</style><svg id="vk" width="24" height="24" viewBox="0 0 24 14" fill="none" xmlns="http://www.w3.org/2000/svg"><path fill-rule="evenodd" clip-rule="evenodd" d="M23.45.948c.166-.546 0-.948-.795-.948H20.03c-.668 0-.976.347-1.143.73 0 0-1.335 3.196-3.226 5.272-.612.602-.89.793-1.224.793-.167 0-.418-.191-.418-.738V.948c0-.656-.184-.948-.74-.948H9.151c-.417 0-.668.304-.668.593 0 .621.946.765 1.043 2.513v3.798c0 .833-.153.984-.487.984-.89 0-3.055-3.211-4.34-6.885C4.45.288 4.198 0 3.527 0H.9C.15 0 0 .347 0 .73c0 .682.89 4.07 4.145 8.551C6.315 12.341 9.37 14 12.153 14c1.669 0 1.875-.368 1.875-1.003v-2.313c0-.737.158-.884.687-.884.39 0 1.057.192 2.615 1.667C19.11 13.216 19.403 14 20.405 14h2.625c.75 0 1.126-.368.91-1.096-.238-.724-1.088-1.775-2.215-3.022-.612-.71-1.53-1.475-1.809-1.858-.389-.491-.278-.71 0-1.147 0 0 3.2-4.426 3.533-5.929h.001Z" fill="#fff"/></svg><svg id="youtube" width="24" height="24" viewBox="0 0 20 14" fill="none" xmlns="http://www.w3.org/2000/svg"><path d="M17.181 0H2.813C1.306 0 0 1.3 0 2.8v8.3C0 12.7 1.306 14 2.813 14h14.368c1.608 0 2.814-1.3 2.814-2.8V2.8c.1-1.5-1.206-2.8-2.814-2.8ZM7.033 10.4V3.6L13.866 7l-6.833 3.4Z" fill="#fff"/></svg><svg id="telegram" width="24" height="24" viewBox="0 0 22 18" fill="none" xmlns="http://www.w3.org/2000/svg"><path d="m21.44 1.622-3.17 14.944c-.239 1.055-.862 1.317-1.748.82l-4.828-3.557-2.33 2.24c-.258.259-.473.474-.97.474l.347-4.917 8.948-8.086c.39-.347-.084-.54-.604-.192L6.022 10.314 1.26 8.823C.224 8.5.205 7.787 1.476 7.29L20.104.113c.862-.323 1.617.192 1.335 1.51Z" fill="#fff"/></svg><svg id="htmlacademy" width="28" height="33" viewBox="0 0 28 33" fill="none" xmlns="http://www.w3.org/2000/svg"><path d="M14.15.25h-.1L.5 1.59V25.22l13.55 7.654 13.45-7.654V1.589L14.15.25Zm11.443 11.577L14.05 5.32v-.096h-.1l-.1-.096v.096L2.406 11.827V3.216L13.95 2.068l11.643 1.148v8.61ZM13.95 6.756l11.543 6.41-4.517 2.488-7.127-4.019v1.34l5.922 3.348-.903.479-5.019-2.87v1.339l3.815 2.2-.803.479-3.012-1.722v1.34l1.908 1.051-1.807 1.053-11.443-6.41L13.95 6.756Zm-11.543 7.94 11.442 6.507v.957L5.92 17.663v1.34l8.03 4.592v1.052L5.92 20.15v1.34l8.03 4.592 8.13-4.688V16.42l3.413-1.914v9.568L13.95 30.674 2.407 24.17v-9.472Z" fill="#000"/></svg><svg id="like" width="22" height="20" viewBox="0 0 22 20" fill="none" xmlns="http://www.w3.org/2000/svg"><path d="m12.4 3.6-.6 2.9-.6 2.5h8.7v2.1L17 18H8V8l4.4-4.4ZM2 10v8-8ZM13.2 0 6.6 6.6c-.4.3-.6.8-.6 1.4v10c0 1.1.9 2 2 2h9c.8 0 1.5-.5 1.8-1.2l3-7.1c.1-.2.1-.5.1-.7V9h.1c0-1.1-.9-2-2-2h-6.3l1-4.6v-.3c0-.4-.2-.8-.4-1.1l-1.1-1ZM4 8H0v12h4V8Z" fill="#81B3D2"/></svg><svg id="houseicon" viewBox="0 0 40 40" fill="none" xmlns="http://www.w3.org/2000/svg"><path d="M15.902 34.804h8.353V22.646h-8.353v12.158Zm6.839-1.475h-5.325V24.12h5.273v9.208h.052Z" fill="#81B3D2"/><path d="m38.404 21.628 1.096-1.069-5.169-5.036V1.788h-7.205v6.715l-7.152-6.918L.5 20.61l1.096 1.069L5.67 17.71V36.94H3.633v1.475h33.361V36.94h-2.663V17.66l4.073 3.968ZM28.64 3.314h4.124v10.734l-4.124-4.019V3.314Zm4.176 33.575H7.235V16.185L19.974 3.72l12.791 12.464v20.704h.052Z" fill="#81B3D2"/><path d="M16.058 15.422c0 2.187 1.828 3.968 4.02 3.968 2.245 0 4.073-1.781 4.073-3.968 0-2.188-1.828-3.918-4.073-3.918s-4.02 1.73-4.02 3.918Zm4.02-2.544c1.41 0 2.61 1.12 2.61 2.544 0 1.373-1.148 2.543-2.61 2.543-1.41 0-2.61-1.119-2.61-2.543 0-1.374 1.2-2.544 2.61-2.544ZM10.89 22.646H9.322v1.984h1.566v-1.984ZM13.97 22.646h-1.566v1.984h1.566v-1.984ZM10.89 25.698H9.322v1.983h1.566v-1.983ZM13.97 25.698h-1.566v1.983h1.566v-1.983ZM27.544 22.646h-1.566v1.984h1.566v-1.984ZM30.677 22.646H29.11v1.984h1.566v-1.984ZM27.544 25.698h-1.566v1.983h1.566v-1.983ZM30.677 25.698H29.11v1.983h1.566v-1.983Z" fill="#81B3D2"/></svg><svg id="burger" viewBox="0 0 40 40" fill="none" xmlns="http://www.w3.org/2000/svg"><path d="M37.743 25.85H2.257C.997 25.85 0 26.864 0 28.029v1.773c0 1.165.997 2.128 2.257 2.128h.525v.506c0 2.786 2.362 5.015 5.197 5.015h24.042c2.887 0 5.197-2.28 5.197-5.015v-.506h.525c1.207 0 2.257-.963 2.257-2.178v-1.773c0-1.115-.997-2.128-2.257-2.128Zm-2.047 6.585c0 1.925-1.628 3.495-3.622 3.495H7.927c-1.995 0-3.623-1.57-3.623-3.495v-.506h31.392v.506Zm2.73-2.684c0 .354-.316.658-.683.658H2.257c-.367 0-.682-.304-.682-.658v-1.773c0-.304.315-.608.682-.608h35.538c.368 0 .683.304.683.659v1.722h-.053ZM8.504 21.747l2.835 2.026 2.887-2.026 2.887 2.026L20 21.747l2.835 2.026 2.887-2.026 2.887 2.026 2.887-2.026 2.887 2.026 3.307-2.38-.892-1.216-2.415 1.672-2.887-2.026-2.887 2.026-2.887-2.026-2.887 2.026L20 19.823l-2.887 2.026-2.887-2.026-2.887 2.026-2.835-2.026-2.887 2.026-2.415-1.672-.945 1.216 3.36 2.38 2.887-2.026ZM37.218 18.303c0-.304.052-1.317 0-1.52C36.85 8.883 29.29 2.55 20 2.55S3.097 8.882 2.73 16.784v1.52h34.488ZM20 4.07c8.399 0 15.328 5.673 15.643 12.714H4.304C4.672 9.743 11.601 4.07 20 4.07Z" fill="#81B3D2"/><path d="M20 11.161c.58 0 1.05-.453 1.05-1.013 0-.56-.47-1.013-1.05-1.013-.58 0-1.05.454-1.05 1.013 0 .56.47 1.013 1.05 1.013ZM15.8 8.679c.58 0 1.05-.454 1.05-1.013 0-.56-.47-1.013-1.05-1.013-.58 0-1.05.453-1.05 1.013 0 .56.47 1.013 1.05 1.013ZM24.2 8.679c.58 0 1.05-.454 1.05-1.013 0-.56-.47-1.013-1.05-1.013-.58 0-1.05.453-1.05 1.013 0 .56.47 1.013 1.05 1.013Z" fill="#81B3D2"/></svg><svg id="gift" viewBox="0 0 40 40" fill="none" xmlns="http://www.w3.org/2000/svg"><path d="M34.578 12.206H22.184c6.908-3.444 7.467-5.622 7.213-6.838-.559-1.975-2.845-3.495-4.978-2.685-2.794 1.064-3.556 5.217-4.317 8.206-.965-3.04-1.88-6.889-4.064-8.864-.61-.557-1.524-1.114-2.895-1.013-2.032.203-4.927 2.684-3.708 5.47 1.117 2.685 4.825 4.407 7.314 5.775H5.422c-.812 0-1.422.658-1.422 1.418v5.672c0 .811.66 1.419 1.422 1.419h.153V39h28.952V20.766h.05c.814 0 1.423-.659 1.423-1.418v-5.673c0-.81-.66-1.47-1.422-1.47ZM25.232 3.95c1.066-.152 2.489.658 2.641 1.62.203 1.368-1.676 2.634-2.54 3.192-1.27.86-2.489 1.316-3.657 2.026.407-1.874 1.27-6.534 3.556-6.838Zm-11.48 4.964c-1.117-.76-3.25-2.23-3.2-3.9.051-1.824 2.896-3.293 4.42-1.925 1.93 1.671 2.844 5.571 3.555 8.306-1.625-.81-3.15-1.418-4.775-2.481ZM16.75 37.48H7.048V20.767h9.701V37.48Zm0-18.234H5.524v-5.52h11.225v5.52Zm5.08 18.235h-3.607V13.724h3.607V37.48Zm11.174 0h-9.65V20.765h9.701V37.48h-.05Zm1.473-18.235H23.352v-5.52h11.124v5.52Z" fill="#81B3D2"/></svg><svg id="play" width="48" height="54" viewBox="0 0 48 54" fill="none" xmlns="http://www.w3.org/2000/svg"><path d="M48 27 0 54V0l48 27Z" fill="#fff"/></svg></svg>
